X: 19088
T: Irish Girl, The
R: reel
M: 4/4
K: Dmajor
~F2 FE DEFD|EA,A,A, EA, A,/A,/A,|F2 FE DEFA|B/c/d ec dBAG|
~F3 E DEFD|EA,A,A, EA, A,/A,/A,|F2 FE DEFA|cdec d3 e||
fd ~d2 dfaf|edcd efge|fddc dfaf|gfeg fd d/d/d|
fddc df ~a2|edcd efge|agfa gfeg|fdec dBAG||

